X:1
T:Title
%%score { ( 1 3 ) | 2 }
L:1/8
M:4/4
K:Ab
V:1 treble nm="Grand Piano"
V:3 treble 
V:2 bass 
V:1
 z4 z2[Q:1/4=100] [CE][CE] | [CA]2 [DA]2 [CA]2 [CE][CF] | [DG]2 [DG]2 [DG]2 E2 | B2 BB B c2 d | %4
[M:3/4] c6 |[M:1/4] [Ec][Ec] |[M:4/4] [Ee]2 [Ee]2 [Ec]2 [EB][EA] | [FB]2 [Fc]2 [Fd]2 [=Ed]2 | %8
 c2 cA B B2 G |[M:3/4] [CEA]6 |[M:1/4] [CE]2 |[M:4/4] [Ec]2 [Ec][Ec] [Ee] [Ec]2 [EA] | %12
 GG G2 G2 E2 | d2 dd e e2 [EGd] |[M:3/4] [EAc]6 |[M:1/4] [CE]2 | %16
[M:4/4] [Ec] [Ec]2 [Ec] [Ee]2 [Ec][CA] | [DG]2 [DG]2 B2 B2 | BB B2 c2 [=DB]2 |[M:3/4] B6 | %20
[M:1/4] [CE]2 |[M:4/4] [Ec]2 [Ec][Ec] [Ee] [Ec]2 [EA] | GG G2 G2 E2 | d2 dd e e2 [EGd] | %24
[M:3/4] [EAc]6 |[M:1/4] [Ec][Ec] |[M:4/4] [Ee]2 [Ee]2 [Ec]2 [EB][EA] | %27
[M:5/4] [FB]2 [Fc]2 [Fd]3 [Fdf]3 |[M:4/4] [ce]2 [ce][CEAc] [DEBd] [DEBd]2 [DEGd] | %29
[M:3/4] [CEAc]6 |] %30
V:2
 z4 z2 [A,,A,][A,,A,] | [A,,E,]2 [A,,F,]2 [A,,E,]2 [A,,A,][A,,E,] | %2
 [B,,E,]2 [B,,E,]2 [B,,E,]2 [E,G,D]2 | [E,G,D]2 [E,G,D][E,G,D] [E,G,E] [E,A,E]2 [E,G,E] | %4
[M:3/4] [A,E]6 |[M:1/4] [A,,A,][A,,A,] |[M:4/4] [C,A,]2 [B,,G,]2 [A,,A,]2 [B,,G,][C,A,] | %7
 [D,A,]2 [C,=A,]2 [A,,B,]2 [D,B,]2 | [E,A,E]2 [E,A,E][E,CE] [E,DE] [E,DE]2 [E,DE] |[M:3/4] A,,6 | %10
[M:1/4] [A,,A,]2 |[M:4/4] [A,,A,]2 [A,,A,][A,,A,] [C,A,] [A,,A,]2 [C,A,] | %12
 [E,B,E][E,B,E] [E,B,E]2 [E,B,E]2 [E,D]2 | [G,B,E]2 [G,B,E][G,B,E] [E,G,E] [E,G,E]2 E, | %14
[M:3/4] A,2 E,2 A,,2 |[M:1/4] [A,,A,]2 |[M:4/4] [A,,A,] [A,,A,]2 [A,,G,] [C,A,]2 [A,,E,][A,,E,] | %17
 [B,,E,]2 [B,,E,]2 [E,G,E]2 [F,A,=D]2 | [G,B,E][G,B,E] [G,B,E]2 [F,A,=D]2 [B,,A,]2 | %19
[M:3/4] [E,G,E]2 [F,A,]2 [E,B,]2 |[M:1/4] [A,,A,]2 | %21
[M:4/4] [A,,A,]2 [A,,A,][A,,A,] [C,A,] [A,,A,]2 [C,A,] | [E,B,E][E,B,E] [E,B,E]2 [E,B,E]2 [E,D]2 | %23
 [G,B,E]2 [G,B,E][G,B,E] [E,G,E] [E,G,E]2 E, |[M:3/4] A,2 E,2 A,,2 |[M:1/4] [A,,A,][A,,A,] | %26
[M:4/4] [C,A,]2 [B,,G,]2 [A,,A,]2 [B,,G,][C,A,] |[M:5/4] [D,A,]2 [C,=A,]2 [B,,B,]3 [D,_A,]3 | %28
[M:4/4] [E,A,E]2 [E,A,E]E, E, E,2 E, |[M:3/4] A,,6 |] %30
V:3
 x8 | x8 | x8 | x8 |[M:3/4] x6 |[M:1/4] x2 |[M:4/4] x8 | x8 | x8 |[M:3/4] x6 |[M:1/4] x2 | %11
[M:4/4] x8 | x8 | x8 |[M:3/4] x6 |[M:1/4] x2 |[M:4/4] x8 | x8 | x8 |[M:3/4] z2 =D2 _D2 | %20
[M:1/4] x2 |[M:4/4] x8 | x8 | x8 |[M:3/4] x6 |[M:1/4] x2 |[M:4/4] x8 |[M:5/4] x10 |[M:4/4] x8 | %29
[M:3/4] x6 |] %30

